priv/static/svgs/duotones/trophy.svg

<svg width="174" height="174" viewBox="0 0 174 174" fill="none" xmlns="http://www.w3.org/2000/svg">
  <symbol id="item" viewBox="0 0 174 174"  fill="none">
    
<path opacity="0.1" d="M78.5788 104.959C98.3137 104.959 114.312 88.961 114.312 69.2261C114.312 49.4913 98.3137 33.493 78.5788 33.493C58.844 33.493 42.8457 49.4913 42.8457 69.2261C42.8457 88.961 58.844 104.959 78.5788 104.959Z" fill="currentColor"/>
<path d="M90.1508 120.672C89.8432 120.672 89.5356 120.53 89.3463 120.27C88.9913 119.82 89.0623 119.182 89.5119 118.827C89.7485 118.637 112.301 100.581 113.295 70.0781C113.295 69.7941 113.2 69.5338 113.011 69.3208C112.821 69.1315 112.561 69.0132 112.301 69.0132C111.733 69.0132 111.259 68.5636 111.259 67.972C111.259 67.3803 111.733 66.9307 112.301 66.9307C113.129 66.9307 113.91 67.262 114.501 67.8536C115.093 68.4689 115.401 69.2498 115.377 70.1017C114.359 101.599 91.0501 120.223 90.8134 120.412C90.6005 120.601 90.3875 120.672 90.1508 120.672Z" fill="currentColor"/>
<path d="M84.1635 120.672C83.9505 120.672 83.7139 120.601 83.5246 120.459C83.2879 120.27 59.9786 101.646 58.961 70.149C58.9373 69.2971 59.245 68.5161 59.8366 67.9009C60.4282 67.3093 61.2091 66.978 62.0373 66.978C62.6053 66.978 63.0786 67.4276 63.0786 68.0192C63.0786 68.6108 62.629 69.0604 62.0373 69.0604C61.777 69.0604 61.5167 69.1788 61.3274 69.3681C61.1381 69.5574 61.0198 69.8413 61.0434 70.1017C62.0137 100.629 84.5895 118.685 84.8261 118.85C85.2757 119.205 85.3467 119.844 84.9917 120.294C84.7788 120.53 84.4711 120.672 84.1635 120.672Z" fill="currentColor"/>
<path d="M104.681 141H69.6338C69.0658 141 68.5925 140.527 68.5925 139.959C68.5925 139.391 69.0422 138.918 69.6338 138.918H104.681C105.249 138.918 105.722 139.391 105.722 139.959C105.722 140.527 105.249 141 104.681 141Z" fill="currentColor"/>
<path d="M59.7658 111.846C56.8314 111.846 54.4413 109.455 54.4413 106.521C54.4413 105.953 54.891 105.48 55.4826 105.48C56.0742 105.48 56.5238 105.953 56.5238 106.521C56.5238 108.32 57.991 109.787 59.7895 109.787C61.588 109.787 63.0551 108.32 63.0551 106.521C63.0551 104.723 61.588 103.255 59.7895 103.255H59.7185C59.4818 103.232 35.9832 101.173 35.9832 78.6209C35.9832 78.0529 36.4328 77.5797 37.0244 77.5797C37.5923 77.5797 38.0656 78.0529 38.0656 78.6209C38.0656 87.282 41.7099 93.7187 48.9275 97.718C54.1337 100.629 59.3872 101.149 59.8605 101.197C62.7712 101.22 65.1376 103.61 65.1376 106.521C65.0903 109.455 62.7002 111.846 59.7658 111.846Z" fill="currentColor"/>
<path d="M114.785 111.846C111.851 111.846 109.461 109.455 109.461 106.521C109.461 103.587 111.827 101.22 114.738 101.197C115.211 101.149 120.512 100.605 125.742 97.6943C132.912 93.6714 136.533 87.2584 136.533 78.6209C136.533 78.0529 137.006 77.5797 137.574 77.5797C138.142 77.5797 138.615 78.0529 138.615 78.6209C138.615 101.173 115.117 103.232 114.88 103.255H114.809C113.011 103.255 111.543 104.723 111.543 106.521C111.543 108.32 113.011 109.787 114.809 109.787C116.608 109.787 118.075 108.32 118.075 106.521C118.075 105.953 118.548 105.48 119.116 105.48C119.684 105.48 120.157 105.953 120.157 106.521C120.11 109.455 117.72 111.846 114.785 111.846Z" fill="currentColor"/>
<path d="M97.2738 135.889C96.7058 135.889 96.2325 135.415 96.2325 134.847C96.2325 129.854 92.1623 125.784 87.1691 125.784C82.1759 125.784 78.1057 129.854 78.1057 134.847C78.1057 135.415 77.6324 135.889 77.0644 135.889C76.4965 135.889 76.0232 135.415 76.0232 134.847C76.0232 128.718 81.0164 123.701 87.1691 123.701C93.3218 123.701 98.315 128.695 98.315 134.847C98.2913 135.415 97.8417 135.889 97.2738 135.889Z" fill="currentColor"/>
<path d="M87.1691 84.0163C74.0117 84.0163 63.2917 73.3201 63.2917 60.139C63.2917 46.9817 73.988 36.2617 87.1691 36.2617C100.326 36.2617 111.046 46.958 111.046 60.139C111.023 73.2964 100.326 84.0163 87.1691 84.0163ZM87.1691 38.3442C75.1476 38.3442 65.3742 48.1175 65.3742 60.139C65.3742 72.1605 75.1476 81.9339 87.1691 81.9339C99.1905 81.9339 108.964 72.1605 108.964 60.139C108.964 48.1175 99.1905 38.3442 87.1691 38.3442Z" fill="currentColor"/>
<path d="M87.1692 75.1895C78.863 75.1895 72.1187 68.4452 72.1187 60.139C72.1187 51.8328 78.863 45.0885 87.1692 45.0885C95.4753 45.0885 102.22 51.8328 102.22 60.139C102.22 68.4452 95.4517 75.1895 87.1692 75.1895ZM87.1692 47.1473C79.9989 47.1473 74.1775 52.9687 74.1775 60.139C74.1775 67.3093 79.9989 73.1307 87.1692 73.1307C94.3394 73.1307 100.161 67.3093 100.161 60.139C100.161 52.9924 94.3158 47.1473 87.1692 47.1473Z" fill="currentColor"/>
<path d="M78.4372 61.1803C77.8693 61.1803 77.396 60.7306 77.396 60.139C77.396 59.5711 77.8693 59.0978 78.4372 59.0978C82.6731 59.0978 86.1281 55.6428 86.1281 51.4069C86.1281 50.8389 86.6014 50.3657 87.1694 50.3657C87.7373 50.3657 88.2106 50.8153 88.2106 51.4069C88.1869 56.8024 83.809 61.1803 78.4372 61.1803Z" fill="currentColor"/>
<path d="M95.8779 61.1802C90.5061 61.1802 86.1282 56.8023 86.1282 51.4305C86.1282 50.8626 86.6015 50.3893 87.1694 50.3893C87.7373 50.3893 88.2106 50.8389 88.2106 51.4305C88.2106 55.6664 91.6656 59.1214 95.9015 59.1214C96.4695 59.1214 96.9428 59.571 96.9428 60.1626C96.8954 60.7069 96.4458 61.1802 95.8779 61.1802Z" fill="currentColor"/>
<path d="M87.1691 69.8887C86.6012 69.8887 86.1279 69.4391 86.1279 68.8475C86.1279 64.6115 82.6729 61.1566 78.437 61.1566C77.869 61.1566 77.3958 60.7069 77.3958 60.1153C77.3958 59.5474 77.869 59.0741 78.437 59.0741C83.8088 59.0741 88.1867 63.452 88.1867 68.8238C88.1867 69.4391 87.7371 69.8887 87.1691 69.8887Z" fill="currentColor"/>
<path d="M87.1694 69.8887C86.6015 69.8887 86.1282 69.4391 86.1282 68.8475C86.1282 63.4757 90.5061 59.0978 95.8779 59.0978C96.4458 59.0978 96.9191 59.5474 96.9191 60.139C96.9191 60.707 96.4458 61.1802 95.8779 61.1802C91.642 61.1802 88.187 64.6352 88.187 68.8711C88.187 69.4391 87.7373 69.8887 87.1694 69.8887Z" fill="currentColor"/>
<path d="M89.2752 42.5564H85.0393C83.2172 42.5564 81.7263 41.0656 81.7263 39.2434V37.7762C81.7263 37.2083 82.1996 36.735 82.7675 36.735C83.3355 36.735 83.8088 37.1846 83.8088 37.7762V39.2434C83.8088 39.9297 84.3767 40.4976 85.063 40.4976H89.2989C89.9852 40.4976 90.5531 39.9297 90.5531 39.2434V37.7762C90.5531 37.2083 91.0264 36.735 91.5943 36.735C92.1623 36.735 92.6356 37.1846 92.6356 37.7762V39.2434C92.5882 41.0656 91.0974 42.5564 89.2752 42.5564Z" fill="currentColor"/>
<path d="M91.547 83.543C90.979 83.543 90.5058 83.0698 90.5058 82.5018V81.0346C90.5058 80.3484 89.9378 79.7804 89.2515 79.7804H85.0156C84.3294 79.7804 83.7614 80.3484 83.7614 81.0346V82.5018C83.7614 83.0698 83.2881 83.543 82.7202 83.543C82.1522 83.543 81.679 83.0698 81.679 82.5018V81.0346C81.679 79.2125 83.1698 77.7216 84.992 77.7216H89.2279C91.05 77.7216 92.5409 79.2125 92.5409 81.0346V82.5018C92.5882 83.0934 92.1149 83.543 91.547 83.543Z" fill="currentColor"/>
<path d="M109.532 65.5582H108.065C106.243 65.5582 104.752 64.0673 104.752 62.2451V58.0092C104.752 56.1871 106.243 54.6962 108.065 54.6962H109.532C110.1 54.6962 110.573 55.1458 110.573 55.7375C110.573 56.3291 110.1 56.7787 109.532 56.7787H108.065C107.378 56.7787 106.811 57.3466 106.811 58.0329V62.2688C106.811 62.9551 107.378 63.523 108.065 63.523H109.532C110.1 63.523 110.573 63.9726 110.573 64.5643C110.573 65.1559 110.1 65.5582 109.532 65.5582Z" fill="currentColor"/>
<path d="M66.2499 65.5581H64.7827C64.2147 65.5581 63.7415 65.1085 63.7415 64.5169C63.7415 63.9253 64.1911 63.4757 64.7827 63.4757H66.2499C66.9361 63.4757 67.5041 62.9077 67.5041 62.2215V57.9855C67.5041 57.2993 66.9361 56.7313 66.2499 56.7313H64.7827C64.2147 56.7313 63.7415 56.2817 63.7415 55.6901C63.7415 55.0985 64.1911 54.6489 64.7827 54.6489H66.2499C68.072 54.6489 69.5629 56.1397 69.5629 57.9619V62.1978C69.5629 64.0909 68.072 65.5581 66.2499 65.5581Z" fill="currentColor"/>
<path d="M99.8768 80.088C99.6165 80.088 99.3562 79.9934 99.1432 79.7804L98.102 78.7392C96.8241 77.4613 96.8241 75.3552 98.102 74.0773L101.084 71.0956C101.699 70.4803 102.527 70.1254 103.426 70.1254C104.302 70.1254 105.13 70.4567 105.769 71.0956L106.81 72.1368C107.213 72.5391 107.213 73.2017 106.81 73.604C106.408 74.0063 105.746 74.0063 105.343 73.604L104.302 72.5628C103.829 72.0895 103 72.0895 102.551 72.5628L99.5691 75.5445C99.0959 76.0178 99.0959 76.8224 99.5691 77.2957L100.61 78.3369C101.013 78.7392 101.013 79.4018 100.61 79.8041C100.397 79.9934 100.137 80.088 99.8768 80.088Z" fill="currentColor"/>
<path d="M70.8879 50.1527C70.036 50.1527 69.184 49.8214 68.5451 49.1824L67.5039 48.1412C67.1016 47.7389 67.1016 47.0763 67.5039 46.674C67.9062 46.2717 68.5688 46.2717 68.9711 46.674L70.0123 47.7153C70.4856 48.1885 71.2902 48.2122 71.7635 47.7153L74.7452 44.7335C75.2184 44.2603 75.2184 43.4557 74.7452 42.9824L73.7039 41.9412C73.3016 41.5389 73.3016 40.8763 73.7039 40.474C74.1062 40.0717 74.7688 40.0717 75.1711 40.474L76.2123 41.5152C76.8276 42.1305 77.1826 42.9587 77.1826 43.858C77.1826 44.7335 76.8513 45.5618 76.2123 46.2007L73.2306 49.1824C72.568 49.845 71.7398 50.1527 70.8879 50.1527Z" fill="currentColor"/>
<path d="M74.4375 80.088C74.1772 80.088 73.9169 79.9934 73.7039 79.7804C73.3016 79.3781 73.3016 78.7155 73.7039 78.3132L74.7452 77.272C74.9818 77.0353 75.1001 76.7277 75.1001 76.3964C75.1001 76.0651 74.9818 75.7575 74.7452 75.5208L71.7635 72.5391C71.2902 72.0658 70.4619 72.0658 70.0123 72.5391L68.9711 73.5803C68.5688 73.9826 67.9062 73.9826 67.5039 73.5803C67.1016 73.1781 67.1016 72.5154 67.5039 72.1132L68.5451 71.0719C69.1604 70.4567 69.9886 70.1017 70.8879 70.1017C71.7871 70.1017 72.5917 70.433 73.2306 71.0719L76.2123 74.0536C76.8276 74.6689 77.1826 75.4972 77.1826 76.3964C77.1826 77.2956 76.8513 78.1002 76.2123 78.7392L75.1711 79.7804C74.9818 79.9934 74.6978 80.088 74.4375 80.088Z" fill="currentColor"/>
<path d="M103.426 50.1526C102.575 50.1526 101.746 49.8213 101.084 49.1824L98.102 46.2007C96.8241 44.9228 96.8241 42.8167 98.102 41.5388L99.1432 40.4976C99.5455 40.0953 100.208 40.0953 100.61 40.4976C101.013 40.8999 101.013 41.5625 100.61 41.9648L99.5691 43.006C99.0959 43.4793 99.0959 44.2839 99.5691 44.7572L102.551 47.7389C103.048 48.2122 103.829 48.2122 104.302 47.7389L105.343 46.6976C105.746 46.2953 106.408 46.2953 106.81 46.6976C107.213 47.0999 107.213 47.7625 106.81 48.1648L105.769 49.2061C105.13 49.845 104.278 50.1526 103.426 50.1526Z" fill="currentColor"/>
<path d="M43.461 86.0988C39.3198 86.0988 35.9358 82.7148 35.9358 78.5735C35.9358 74.4323 39.3198 71.0483 43.461 71.0483C47.6023 71.0483 50.9863 74.4086 50.9863 78.5735C50.9863 82.7385 47.6023 86.0988 43.461 86.0988ZM43.461 73.1307C40.4557 73.1307 37.9946 75.5682 37.9946 78.5972C37.9946 81.6026 40.432 84.0637 43.461 84.0637C46.4664 84.0637 48.9275 81.6262 48.9275 78.5972C48.9275 75.5918 46.4664 73.1307 43.461 73.1307Z" fill="currentColor"/>
<path d="M131.067 86.0988C126.925 86.0988 123.541 82.7148 123.541 78.5735C123.541 74.4323 126.902 71.0483 131.067 71.0483C135.231 71.0483 138.592 74.4086 138.592 78.5735C138.592 82.7385 135.208 86.0988 131.067 86.0988ZM131.067 73.1307C128.061 73.1307 125.6 75.5682 125.6 78.5972C125.6 81.6026 128.037 84.0637 131.067 84.0637C134.096 84.0637 136.533 81.6262 136.533 78.5972C136.533 75.5918 134.072 73.1307 131.067 73.1307Z" fill="currentColor"/>

  </symbol>
</svg>

<svg width="174" height="174" viewBox="0 0 174 174" fill="none" xmlns="http://www.w3.org/2000/svg">
  <symbol id="item" viewBox="0 0 174 174"  fill="none">
    <path opacity=".1" d="M78.579 104.959c19.735 0 35.733-15.998 35.733-35.733S98.314 33.493 78.579 33.493 42.846 49.491 42.846 69.226s15.998 35.733 35.733 35.733Z" fill="currentColor"/><path d="M90.15 120.672a.998.998 0 0 1-.804-.402 1.02 1.02 0 0 1 .166-1.443c.237-.19 22.789-18.246 23.783-48.749 0-.284-.095-.544-.284-.757-.19-.19-.45-.308-.71-.308-.568 0-1.042-.45-1.042-1.041 0-.592.474-1.041 1.042-1.041.828 0 1.609.331 2.2.923.592.615.9 1.396.876 2.248-1.018 31.497-24.327 50.121-24.564 50.31a.947.947 0 0 1-.662.26ZM84.163 120.672a1.09 1.09 0 0 1-.638-.213c-.237-.189-23.546-18.813-24.564-50.31a3.067 3.067 0 0 1 .876-2.248 3.1 3.1 0 0 1 2.2-.923c.568 0 1.042.45 1.042 1.041a1.02 1.02 0 0 1-1.042 1.041c-.26 0-.52.119-.71.308a.962.962 0 0 0-.284.734c.97 30.527 23.547 48.583 23.783 48.748.45.355.52.994.166 1.444-.213.236-.52.378-.829.378ZM104.681 141H69.634a1.05 1.05 0 0 1-1.041-1.041c0-.568.45-1.041 1.04-1.041h35.048a1.05 1.05 0 0 1 1.041 1.041 1.05 1.05 0 0 1-1.041 1.041ZM59.766 111.846a5.333 5.333 0 0 1-5.325-5.325c0-.568.45-1.041 1.042-1.041.591 0 1.04.473 1.04 1.041a3.272 3.272 0 0 0 3.266 3.266 3.272 3.272 0 0 0 3.266-3.266 3.273 3.273 0 0 0-3.266-3.266h-.07c-.237-.023-23.736-2.082-23.736-24.634 0-.568.45-1.041 1.041-1.041a1.05 1.05 0 0 1 1.042 1.04c0 8.662 3.644 15.099 10.861 19.098 5.207 2.911 10.46 3.431 10.934 3.479 2.91.023 5.277 2.413 5.277 5.324-.048 2.934-2.438 5.325-5.372 5.325ZM114.785 111.846a5.333 5.333 0 0 1-5.324-5.325 5.322 5.322 0 0 1 5.277-5.324c.473-.048 5.774-.592 11.004-3.503 7.17-4.023 10.791-10.436 10.791-19.073a1.05 1.05 0 0 1 1.041-1.041 1.05 1.05 0 0 1 1.041 1.04c0 22.553-23.498 24.612-23.735 24.635h-.071a3.273 3.273 0 0 0-3.266 3.266 3.273 3.273 0 0 0 3.266 3.266 3.272 3.272 0 0 0 3.266-3.266 1.05 1.05 0 0 1 1.041-1.041 1.05 1.05 0 0 1 1.041 1.041c-.047 2.934-2.437 5.325-5.372 5.325Z" fill="currentColor"/><path d="M97.274 135.889a1.051 1.051 0 0 1-1.041-1.042c0-4.993-4.07-9.063-9.064-9.063-4.993 0-9.063 4.07-9.063 9.063 0 .568-.474 1.042-1.042 1.042a1.051 1.051 0 0 1-1.04-1.042c0-6.129 4.992-11.146 11.145-11.146s11.146 4.994 11.146 11.146c-.024.568-.473 1.042-1.041 1.042ZM87.17 84.016c-13.158 0-23.878-10.696-23.878-23.877 0-13.157 10.696-23.877 23.877-23.877 13.157 0 23.877 10.696 23.877 23.877-.023 13.157-10.72 23.877-23.877 23.877Zm0-45.672c-12.022 0-21.796 9.773-21.796 21.795 0 12.021 9.774 21.795 21.795 21.795 12.022 0 21.795-9.773 21.795-21.795 0-12.022-9.773-21.795-21.795-21.795Z" fill="currentColor"/><path d="M87.17 75.19c-8.307 0-15.051-6.745-15.051-15.051 0-8.306 6.744-15.05 15.05-15.05 8.306 0 15.051 6.744 15.051 15.05 0 8.306-6.768 15.05-15.05 15.05Zm0-28.043c-7.171 0-12.993 5.822-12.993 12.992 0 7.17 5.822 12.992 12.992 12.992 7.17 0 12.992-5.822 12.992-12.992 0-7.147-5.845-12.992-12.992-12.992Z" fill="currentColor"/><path d="M78.437 61.18c-.568 0-1.041-.45-1.041-1.041a1.05 1.05 0 0 1 1.041-1.041c4.236 0 7.691-3.455 7.691-7.691a1.05 1.05 0 0 1 1.041-1.041c.568 0 1.042.45 1.042 1.04-.024 5.396-4.402 9.774-9.774 9.774Z" fill="currentColor"/><path d="M95.878 61.18c-5.372 0-9.75-4.378-9.75-9.75a1.05 1.05 0 0 1 1.041-1.04c.568 0 1.042.449 1.042 1.04 0 4.236 3.455 7.691 7.69 7.691.569 0 1.042.45 1.042 1.042-.048.544-.497 1.017-1.065 1.017ZM87.17 69.889c-.569 0-1.042-.45-1.042-1.041 0-4.236-3.455-7.691-7.691-7.691-.568 0-1.041-.45-1.041-1.042a1.05 1.05 0 0 1 1.041-1.04c5.372 0 9.75 4.377 9.75 9.749 0 .615-.45 1.065-1.018 1.065Z" fill="currentColor"/><path d="M87.17 69.889c-.569 0-1.042-.45-1.042-1.041 0-5.372 4.378-9.75 9.75-9.75.568 0 1.041.45 1.041 1.041a1.05 1.05 0 0 1-1.041 1.041c-4.236 0-7.691 3.455-7.691 7.691a1.01 1.01 0 0 1-1.018 1.018Z" fill="currentColor"/><path d="M89.275 42.556H85.04a3.323 3.323 0 0 1-3.313-3.313v-1.467a1.05 1.05 0 0 1 1.041-1.041c.569 0 1.042.45 1.042 1.041v1.467c0 .687.568 1.255 1.254 1.255h4.236c.686 0 1.254-.568 1.254-1.255v-1.467a1.05 1.05 0 0 1 1.041-1.041c.568 0 1.042.45 1.042 1.041v1.467c-.048 1.823-1.539 3.313-3.36 3.313ZM91.547 83.543a1.05 1.05 0 0 1-1.041-1.041v-1.467c0-.687-.568-1.255-1.255-1.255h-4.235c-.687 0-1.255.568-1.255 1.255v1.467a1.05 1.05 0 0 1-1.04 1.041 1.05 1.05 0 0 1-1.042-1.041v-1.467a3.323 3.323 0 0 1 3.313-3.313h4.236a3.323 3.323 0 0 1 3.313 3.313v1.467c.047.591-.426 1.041-.994 1.041ZM109.532 65.558h-1.467a3.323 3.323 0 0 1-3.313-3.313V58.01a3.323 3.323 0 0 1 3.313-3.313h1.467c.568 0 1.041.45 1.041 1.041 0 .592-.473 1.042-1.041 1.042h-1.467c-.687 0-1.254.568-1.254 1.254v4.236c0 .686.567 1.254 1.254 1.254h1.467c.568 0 1.041.45 1.041 1.041 0 .592-.473.994-1.041.994ZM66.25 65.558h-1.467c-.568 0-1.041-.45-1.041-1.041 0-.592.45-1.041 1.04-1.041h1.468c.686 0 1.254-.568 1.254-1.255v-4.235c0-.687-.568-1.255-1.254-1.255h-1.467c-.568 0-1.041-.45-1.041-1.04 0-.593.45-1.042 1.04-1.042h1.468a3.323 3.323 0 0 1 3.313 3.313v4.236c0 1.893-1.491 3.36-3.313 3.36ZM99.877 80.088c-.26 0-.52-.095-.734-.308l-1.041-1.04a3.314 3.314 0 0 1 0-4.663l2.982-2.981a3.29 3.29 0 0 1 2.342-.97c.876 0 1.704.33 2.343.97l1.041 1.04a1.041 1.041 0 0 1 0 1.468 1.042 1.042 0 0 1-1.467 0l-1.041-1.041c-.473-.474-1.302-.474-1.751 0l-2.982 2.981a1.258 1.258 0 0 0 0 1.752l1.041 1.04a1.041 1.041 0 0 1 0 1.468 1.1 1.1 0 0 1-.733.284ZM70.888 50.153a3.316 3.316 0 0 1-2.343-.97l-1.041-1.042a1.043 1.043 0 0 1 0-1.467 1.043 1.043 0 0 1 1.467 0l1.041 1.041c.474.473 1.278.497 1.751 0l2.982-2.982a1.257 1.257 0 0 0 0-1.75l-1.041-1.042a1.043 1.043 0 0 1 0-1.467 1.043 1.043 0 0 1 1.467 0l1.041 1.041c.616.615.97 1.444.97 2.343 0 .876-.33 1.704-.97 2.343l-2.981 2.981c-.663.663-1.491.97-2.343.97ZM74.438 80.088a1.043 1.043 0 0 1-.734-1.775l1.041-1.041c.237-.237.355-.544.355-.876 0-.33-.118-.639-.355-.875l-2.982-2.982c-.473-.473-1.301-.473-1.75 0L68.97 73.58a1.043 1.043 0 0 1-1.467 0 1.043 1.043 0 0 1 0-1.467l1.041-1.041a3.292 3.292 0 0 1 2.343-.97c.9 0 1.704.331 2.343.97l2.981 2.982c.616.615.97 1.443.97 2.342 0 .9-.33 1.704-.97 2.343l-1.04 1.041a.984.984 0 0 1-.734.308ZM103.426 50.153c-.851 0-1.68-.332-2.342-.97L98.102 46.2a3.314 3.314 0 0 1 0-4.662l1.041-1.041a1.042 1.042 0 0 1 1.467 0 1.041 1.041 0 0 1 0 1.467l-1.04 1.041a1.258 1.258 0 0 0 0 1.751l2.981 2.982c.497.473 1.278.473 1.751 0l1.041-1.041a1.042 1.042 0 0 1 1.467 0 1.041 1.041 0 0 1 0 1.467l-1.041 1.041a3.292 3.292 0 0 1-2.343.947ZM43.461 86.099c-4.141 0-7.525-3.384-7.525-7.526 0-4.14 3.384-7.525 7.525-7.525s7.525 3.36 7.525 7.525c0 4.166-3.384 7.526-7.525 7.526Zm0-12.968a5.469 5.469 0 0 0-5.466 5.466 5.469 5.469 0 0 0 5.466 5.467 5.469 5.469 0 0 0 5.467-5.467c0-3.005-2.462-5.466-5.467-5.466ZM131.067 86.099c-4.142 0-7.526-3.384-7.526-7.526 0-4.14 3.361-7.525 7.526-7.525a7.514 7.514 0 0 1 7.525 7.525c0 4.166-3.384 7.526-7.525 7.526Zm0-12.968a5.469 5.469 0 0 0-5.467 5.466 5.469 5.469 0 0 0 5.467 5.467 5.453 5.453 0 0 0 5.466-5.467c0-3.005-2.461-5.466-5.466-5.466Z" fill="currentColor"/>
  </symbol>
</svg>
